gtk-icons/Papirus-Dark-GTK/16x16/actions/document-save-all.svg

<?xml version="1.0" encoding="UTF-8" standalone="no"?>
<!-- Created with Inkscape (http://www.inkscape.org/) -->

<svg
   xmlns:osb="http://www.openswatchbook.org/uri/2009/osb"
   xmlns:dc="http://purl.org/dc/elements/1.1/"
   xmlns:cc="http://creativecommons.org/ns#"
   xmlns:rdf="http://www.w3.org/1999/02/22-rdf-syntax-ns#"
   xmlns:svg="http://www.w3.org/2000/svg"
   xmlns="http://www.w3.org/2000/svg"
   xmlns:sodipodi="http://sodipodi.sourceforge.net/DTD/sodipodi-0.dtd"
   xmlns:inkscape="http://www.inkscape.org/namespaces/inkscape"
   sodipodi:docname="document-save-all.svg"
   inkscape:export-filename="/home/sam/source-symbolic.png"
   inkscape:export-xdpi="270"
   inkscape:export-ydpi="270"
   height="16"
   id="svg7384"
   style="enable-background:new"
   version="1.1"
   inkscape:version="0.91 r"
   width="16">
  <sodipodi:namedview
     inkscape:bbox-nodes="true"
     inkscape:bbox-paths="false"
     bordercolor="#666666"
     borderlayer="false"
     borderopacity="1"
     inkscape:current-layer="layer12"
     inkscape:cx="7.6143787"
     inkscape:cy="4.6285787"
     gridtolerance="10"
     inkscape:guide-bbox="true"
     guidetolerance="10"
     id="namedview88"
     inkscape:object-nodes="true"
     inkscape:object-paths="true"
     objecttolerance="10"
     pagecolor="#f7f7f7"
     inkscape:pageopacity="0"
     inkscape:pageshadow="2"
     showborder="true"
     showgrid="false"
     showguides="true"
     inkscape:showpageshadow="false"
     inkscape:snap-bbox="true"
     inkscape:snap-bbox-edge-midpoints="false"
     inkscape:snap-bbox-midpoints="true"
     inkscape:snap-center="false"
     inkscape:snap-global="true"
     inkscape:snap-grids="true"
     inkscape:snap-intersection-paths="true"
     inkscape:snap-midpoints="true"
     inkscape:snap-nodes="true"
     inkscape:snap-object-midpoints="true"
     inkscape:snap-others="true"
     inkscape:snap-page="false"
     inkscape:snap-smooth-nodes="true"
     inkscape:snap-to-guides="true"
     inkscape:window-height="842"
     inkscape:window-maximized="1"
     inkscape:window-width="1600"
     inkscape:window-x="-4"
     inkscape:window-y="32"
     inkscape:zoom="26.24">
    <inkscape:grid
       color="#ffffff"
       dotted="false"
       empcolor="#0800ff"
       empopacity="0.4627451"
       empspacing="4"
       enabled="true"
       id="grid4866"
       opacity="0.16470588"
       originx="-84.002699"
       originy="-297.01904"
       snapvisiblegridlinesonly="true"
       spacingx="0.25px"
       spacingy="0.25px"
       type="xygrid"
       visible="true" />
  </sodipodi:namedview>
  <metadata
     id="metadata90">
    <rdf:RDF>
      <cc:Work
         rdf:about="">
        <dc:format>image/svg+xml</dc:format>
        <dc:type
           rdf:resource="http://purl.org/dc/dcmitype/StillImage" />
        <dc:title>Paper Symbolic Icon Theme</dc:title>
      </cc:Work>
    </rdf:RDF>
  </metadata>
  <title
     id="title8473">Paper Symbolic Icon Theme</title>
  <defs
     id="defs7386">
    <linearGradient
       id="linearGradient5606"
       osb:paint="solid">
      <stop
         id="stop5608"
         offset="0"
         style="stop-color:#ffffff;stop-opacity:1;" />
    </linearGradient>
  </defs>
  <g
     inkscape:groupmode="layer"
     id="layer12"
     inkscape:label="actions"
     style="display:inline"
     transform="translate(-325.0029,80.019037)">
    <path
       inkscape:connector-curvature="0"
       d="m 330.99239,-79 0.01,6 -2.3418,0 3.33981,4.86133 0,-1.98633 c 0,-1.0106 0.90116,-1.84375 1.875,-1.84375 l 2.7832,0 0.7168,-1.03125 -2.375,0 -0.01,-6 -3.99805,0 z"
       id="path10456"
       style="opacity:0.72;fill:#ffffff;fill-opacity:1;fill-rule:nonzero;stroke:none" />
    <path
       inkscape:connector-curvature="0"
       d="m 325.99825,-65.98828 0,1.96875 6.25781,0 c -0.15641,-0.26492 -0.25586,-0.56446 -0.25586,-0.88672 l 0,-1.08203 z"
       id="path10461"
       style="opacity:0.72;fill:#ffffff;fill-opacity:1;fill-rule:nonzero;stroke:none"
       sodipodi:nodetypes="cccscc" />
    <path
       style="color:#bebebe;display:inline;overflow:visible;visibility:visible;opacity:0.72;fill:#ffffff;fill-opacity:1;fill-rule:nonzero;stroke:none;stroke-width:2;marker:none;enable-background:new"
       d="M 8.8730469 9.0507812 C 8.3805969 9.0507812 7.9980469 9.4063713 7.9980469 9.8945312 L 7.9980469 15.113281 C 7.9980469 15.601441 8.3805969 15.957031 8.8730469 15.957031 L 15.123047 15.957031 C 15.615497 15.957031 15.998047 15.601441 15.998047 15.113281 L 15.998047 9.8945312 C 15.998047 9.4063713 15.615497 9.0507812 15.123047 9.0507812 L 8.8730469 9.0507812 z M 10 10 L 11 10 L 13 10 L 14 10 L 14 11 L 14 15 L 13 15 L 13 13 L 11 13 L 11 15 L 10 15 L 10 13 L 10 12 L 10 11 L 10 10 z M 11 11 L 11 12 L 13 12 L 13 11 L 11 11 z "
       transform="translate(325.0029,-80.019037)"
       id="path4142" />
  </g>
</svg>

<?xml version="1.0" encoding="UTF-8" standalone="no"?>
<!-- Created with Inkscape (http://www.inkscape.org/) -->
<svg id="svg7384" xmlns:rdf="http://www.w3.org/1999/02/22-rdf-syntax-ns#" style="enable-background:new" xmlns="http://www.w3.org/2000/svg" xmlns:osb="http://www.openswatchbook.org/uri/2009/osb" height="16" width="16" version="1.1" xmlns:cc="http://creativecommons.org/ns#" xmlns:dc="http://purl.org/dc/elements/1.1/">
 <metadata id="metadata90">
  <rdf:RDF>
   <cc:Work rdf:about="">
    <dc:format>image/svg+xml</dc:format>
    <dc:type rdf:resource="http://purl.org/dc/dcmitype/StillImage"/>
    <dc:title>Paper Symbolic Icon Theme</dc:title>
   </cc:Work>
  </rdf:RDF>
 </metadata>
 <title id="title8473">Paper Symbolic Icon Theme</title>
 <g id="layer12" transform="translate(-325 80.019)" fill="#fff">
  <path id="path10456" opacity=".72" d="m330.99-79 0.01 6h-2.3418l3.3398 4.8613v-1.9863c0-1.0106 0.90116-1.8438 1.875-1.8438h2.7832l0.7168-1.0312h-2.375l-0.01-6h-3.998z"/>
  <path id="path10461" opacity=".72" d="m326-65.988v1.9688h6.2578c-0.15641-0.26492-0.25586-0.56446-0.25586-0.88672v-1.082z"/>
  <path id="path4142" opacity=".72" style="color:#bebebe;enable-background:new" d="m8.873 9.0508c-0.4924 0-0.875 0.3556-0.875 0.8437v5.2185c0 0.488 0.3826 0.844 0.875 0.844h6.25c0.492 0 0.875-0.356 0.875-0.844v-5.2185c0-0.4881-0.383-0.8437-0.875-0.8437h-6.25zm1.127 0.9492h1 2 1v1 4h-1v-2h-2v2h-1v-2-1-1-1zm1 1v1h2v-1h-2z" transform="translate(325 -80.019)"/>
 </g>
</svg>
